src/icons/cloudflare-challenges.svg

<svg xmlns="http://www.w3.org/2000/svg" viewBox="0 0 64 64"><path d="M51.3916 41.4648L42.1484 50.8096L36.585 44.998L39.4736 42.2324L42.1953 45.0742L48.5479 38.6523L51.3916 41.4648Z" /><path d="M44.002 30C47.7132 30.0039 51.2712 31.4802 53.8955 34.1045C56.5196 36.7287 57.9961 40.2869 58 43.998V44L57.9902 44.5186C57.8943 47.1057 57.0827 49.6201 55.6406 51.7783C54.1023 54.0804 51.9154 55.875 49.3574 56.9346C46.7994 57.9941 43.9841 58.2716 41.2686 57.7314C38.553 57.1913 36.0585 55.8572 34.1006 53.8994C32.6244 52.4232 31.5036 50.6415 30.8096 48.6904H8L6 46.6904C6 42.2655 7.75784 38.0215 10.8867 34.8926C14.0156 31.7637 18.2597 30.0059 22.6846 30.0059H30.0996L30.5137 30.0107C32.91 30.0704 35.2444 30.6446 37.3672 31.6719C39.4 30.5782 41.6779 30 44 30V31.5703L44.002 30ZM43.998 34C42.0209 34.0004 40.0883 34.5871 38.4443 35.6855C36.8 36.7843 35.5176 38.3457 34.7607 40.1729C34.004 42 33.8066 44.0115 34.1924 45.9512C34.5783 47.8907 35.5304 49.6729 36.9287 51.0713C38.3271 52.4696 40.1092 53.4217 42.0488 53.8076C43.9886 54.1934 46 53.9961 47.8271 53.2393C49.6542 52.4824 51.2157 51.1999 52.3145 49.5557C53.4128 47.9118 53.9995 45.9789 54 44.002C53.9971 41.3502 52.9424 38.8077 51.0674 36.9326C49.1923 35.0575 46.6499 34.0029 43.998 34ZM22.3691 34.0098C19.1192 34.0904 16.0192 35.4163 13.7148 37.7207C11.8127 39.6229 10.5779 42.0673 10.1592 44.6904H30.0176C29.9159 42.6302 30.2697 40.5639 31.0654 38.6426C31.696 37.1202 32.5872 35.7293 33.6904 34.5283C32.6334 34.216 31.5331 34.0376 30.4141 34.0098L30.0986 34.0059H22.6846L22.3691 34.0098Z" /><path d="M26.3896 6C32.5711 6 37.5828 11.011 37.583 17.1924C37.583 23.374 32.5713 28.3857 26.3896 28.3857C20.2082 28.3855 15.1973 23.3739 15.1973 17.1924C15.1975 11.0111 20.2084 6.00025 26.3896 6ZM26.3896 10C22.4175 10.0002 19.1975 13.2203 19.1973 17.1924C19.1973 21.1647 22.4174 24.3855 26.3896 24.3857C30.3621 24.3857 33.583 21.1649 33.583 17.1924C33.5828 13.2201 30.362 10 26.3896 10Z" /></svg>

<svg xmlns="http://www.w3.org/2000/svg" viewBox="0 0 64 64"><path d="m51.392 41.465-9.244 9.345-5.563-5.812 2.889-2.766 2.721 2.842 6.353-6.422z"/><path d="M44.002 30A14.013 14.013 0 0 1 58 43.998V44l-.01.519A14.002 14.002 0 0 1 41.27 57.73a14 14 0 0 1-10.46-9.04H8l-2-2a16.685 16.685 0 0 1 16.685-16.685H30.1l.414.005c2.396.06 4.73.634 6.853 1.66A14 14 0 0 1 44 30v1.57zm-.004 4A10 10 0 1 0 54 44.002 10.014 10.014 0 0 0 43.998 34m-21.629.01a12.684 12.684 0 0 0-12.21 10.68h19.859a14 14 0 0 1 3.672-10.162 12.7 12.7 0 0 0-3.276-.518l-.315-.004h-7.414zM26.39 6c6.181 0 11.193 5.011 11.193 11.192 0 6.182-5.012 11.194-11.193 11.194-6.182 0-11.193-5.012-11.193-11.194C15.197 11.012 20.208 6 26.39 6m0 4a7.193 7.193 0 1 0 0 14.386 7.193 7.193 0 0 0 0-14.386"/></svg>
